2/src/images/footer-logo.svg

<svg width="169" height="59" viewBox="0 0 169 59" fill="none" xmlns="http://www.w3.org/2000/svg">
<mask id="mask0" mask-type="alpha" maskUnits="userSpaceOnUse" x="23" y="49" width="10" height="10">
<path fill-rule="evenodd" clip-rule="evenodd" d="M23.875 49.5331H32.3602V58.6182H23.875V49.5331Z" fill="white"/>
</mask>
<g mask="url(#mask0)">
<path fill-rule="evenodd" clip-rule="evenodd" d="M32.3602 51.498L30.8345 52.4178C30.3262 51.6607 29.5315 51.2099 28.5335 51.2099C26.9256 51.2099 25.7251 52.3734 25.7251 54.0755C25.7251 55.8333 26.9645 56.941 28.5335 56.941C29.5253 56.941 30.32 56.5094 30.8539 55.7402L32.3027 56.7661C31.5019 57.9043 30.1803 58.6188 28.5468 58.6188C25.8012 58.6188 23.875 56.7096 23.875 54.0755C23.875 51.4414 25.8012 49.5331 28.5468 49.5331C30.1927 49.5331 31.6291 50.278 32.3602 51.498Z" fill="#7F7F7F"/>
</g>
<path fill-rule="evenodd" clip-rule="evenodd" d="M38.5045 58.6182H36.6776V54.8364L33.1484 49.0461H35.296L37.6011 53.1076L39.9061 49.0461H41.9881L38.5045 54.844V58.6182Z" fill="#7F7F7F"/>
<path fill-rule="evenodd" clip-rule="evenodd" d="M45.8316 56.9362L47.6634 56.9428C48.57 56.9428 49.1314 56.6966 49.1314 55.78C49.1314 54.8776 48.57 54.639 47.6634 54.639H45.8316V56.9362ZM45.8316 52.9636H47.5055C48.3185 52.9636 48.9508 52.7658 48.9508 51.8359C48.9508 50.9392 48.3071 50.7291 47.499 50.7291H45.8316V52.9636ZM50.6532 51.699C50.6532 52.6631 50.1438 53.4418 49.4651 53.73C50.2146 54.0238 50.829 54.8443 50.829 55.876C50.829 57.7083 49.7117 58.6182 47.7456 58.6182H44.1992V49.0461H47.5462C49.4537 49.0461 50.6532 49.8733 50.6532 51.699Z" fill="#7F7F7F"/>
<path fill-rule="evenodd" clip-rule="evenodd" d="M54.5117 58.6182V49.0461H61.0912V50.7958H56.28V52.9164H60.8691V54.6671H56.28V56.8676H61.1415V58.6182H54.5117Z" fill="#7F7F7F"/>
<path fill-rule="evenodd" clip-rule="evenodd" d="M66.495 53.1484H68.339C69.2552 53.1484 69.7224 52.7719 69.7224 51.9588C69.7224 51.1581 69.2318 50.8025 68.339 50.8025H66.495V53.1484ZM71.4414 51.9588C71.4414 53.5307 70.4836 54.5967 68.872 54.7821L71.4539 58.6182H69.4292L66.9863 54.8097H66.495V58.6182H64.8242V49.0461H68.3689C70.3695 49.0461 71.4414 50.1254 71.4414 51.9588Z" fill="#7F7F7F"/>
<path fill-rule="evenodd" clip-rule="evenodd" d="M77.5719 50.7505C76.5835 50.7505 75.8743 51.1594 75.8743 51.8604C75.8743 52.5339 76.6407 52.7526 77.7049 52.9308L78.2053 53.0163C79.7954 53.2809 81.0304 54.0012 81.0304 55.6064C81.0304 57.6406 79.3073 58.6182 77.401 58.6182C76.0514 58.6182 74.6137 58.2094 73.6641 57.4091L74.582 55.9234C75.2286 56.4517 76.2611 56.9212 77.4072 56.9212C78.3956 56.9212 79.1488 56.5178 79.1488 55.8039C79.1488 55.1635 78.503 54.932 77.268 54.7207L76.7042 54.6288C75.1396 54.3651 73.9997 53.6567 73.9997 51.9799C73.9997 50.0504 75.6462 49.0461 77.534 49.0461C78.7823 49.0461 79.8015 49.3365 80.923 50.0302L80.0861 51.5361C79.384 51.0868 78.5409 50.7505 77.5719 50.7505Z" fill="#7F7F7F"/>
<path fill-rule="evenodd" clip-rule="evenodd" d="M83.9766 58.6182V49.0461H90.556V50.7958H85.7448V52.9164H90.3338V54.6671H85.7448V56.8675H90.6062V58.6182H83.9766Z" fill="#7F7F7F"/>
<mask id="mask1" mask-type="alpha" maskUnits="userSpaceOnUse" x="93" y="49" width="9" height="10">
<path fill-rule="evenodd" clip-rule="evenodd" d="M93.1758 49.5331H101.532V58.6182H93.1758V49.5331Z" fill="white"/>
</mask>
<g mask="url(#mask1)">
<path fill-rule="evenodd" clip-rule="evenodd" d="M101.532 51.498L100.03 52.4178C99.5292 51.6607 98.7466 51.2099 97.7637 51.2099C96.1801 51.2099 94.9979 52.3734 94.9979 54.0755C94.9979 55.8333 96.2184 56.941 97.7637 56.941C98.7405 56.941 99.5231 56.5094 100.049 55.7402L101.476 56.7661C100.687 57.9043 99.3856 58.6188 97.7768 58.6188C95.0728 58.6188 93.1758 56.7096 93.1758 54.0755C93.1758 51.4414 95.0728 49.5331 97.7768 49.5331C99.3978 49.5331 100.812 50.278 101.532 51.498Z" fill="#7F7F7F"/>
</g>
<path fill-rule="evenodd" clip-rule="evenodd" d="M108.286 58.6182C106.111 58.6182 104.604 57.2944 104.604 54.6954V49.0461H106.314V54.601C106.314 56.1397 107.114 56.8245 108.286 56.8245C109.459 56.8245 110.26 56.1397 110.26 54.601V49.0461H111.97V54.6954C111.97 57.2944 110.461 58.6182 108.286 58.6182Z" fill="#7F7F7F"/>
<path fill-rule="evenodd" clip-rule="evenodd" d="M117.323 53.1484H119.167C120.083 53.1484 120.551 52.7719 120.551 51.9588C120.551 51.1581 120.06 50.8025 119.167 50.8025H117.323V53.1484ZM122.27 51.9588C122.27 53.5307 121.312 54.5967 119.7 54.7822L122.282 58.6182H120.257L117.814 54.8097H117.323V58.6182H115.652V49.0461H119.197C121.198 49.0461 122.27 50.1254 122.27 51.9588Z" fill="#7F7F7F"/>
<mask id="mask2" mask-type="alpha" maskUnits="userSpaceOnUse" x="0" y="0" width="169" height="59">
<path fill-rule="evenodd" clip-rule="evenodd" d="M0 58.6182H168.69V0.449219H0V58.6182Z" fill="white"/>
</mask>
<g mask="url(#mask2)">
<path fill-rule="evenodd" clip-rule="evenodd" d="M125.229 58.6182H126.702V49.0461H125.229V58.6182Z" fill="#7F7F7F"/>
<path fill-rule="evenodd" clip-rule="evenodd" d="M134.227 50.831V58.6182H132.436V50.831H129.648V49.0461H137.015V50.831H134.227Z" fill="#7F7F7F"/>
<path fill-rule="evenodd" clip-rule="evenodd" d="M143.107 58.6182H141.281V54.8364L137.752 49.0461H139.899L142.204 53.1076L144.509 49.0461H146.592L143.107 54.844V58.6182Z" fill="#7F7F7F"/>
<path fill-rule="evenodd" clip-rule="evenodd" d="M18.1608 15.4174L16.1619 15.0925C11.9033 14.4218 8.84081 13.5982 8.84081 11.0596C8.84081 8.41679 11.6778 6.87471 15.6261 6.87471C19.09 6.87471 22.1445 7.88423 24.756 9.30294L29.0288 4.16325C24.5447 1.54822 20.4691 0.449219 15.4785 0.449219C7.92578 0.449219 1.33761 4.23275 1.33761 11.5027C1.33761 17.8309 5.89859 20.4946 12.1561 21.4902L14.4087 21.8368C19.3499 22.6317 21.9402 23.504 21.9402 25.9244C21.9402 28.6089 18.9211 30.1302 14.9719 30.1302C10.7274 30.1302 6.87726 28.615 4.27983 26.8167L0 31.9772C3.80155 34.9858 9.54454 36.5287 14.9436 36.5287C22.5741 36.5287 29.4655 32.8416 29.4655 25.1773C29.4655 19.1254 24.5235 16.413 18.1608 15.4174Z" fill="#7F7F7F"/>
<path fill-rule="evenodd" clip-rule="evenodd" d="M50.1648 18.4255L65.1679 1.18555H56.2217L44.3924 15.5017H41.0207V1.18555H33.8848V36.5287H41.0207V21.9889H44.314L57.0448 36.5287H66.2968L50.1648 18.4255Z" fill="#7F7F7F"/>
<path fill-rule="evenodd" clip-rule="evenodd" d="M129.266 1.18555V22.1272C129.266 27.9238 125.982 30.5054 121.174 30.5054C116.367 30.5054 113.09 27.9238 113.09 22.1272V1.18555H106.076V22.4788C106.076 32.2768 112.261 37.2651 121.174 37.2651C130.093 37.2651 136.278 32.2768 136.278 22.4788V1.18555H129.266Z" fill="#7F7F7F"/>
<path fill-rule="evenodd" clip-rule="evenodd" d="M139.961 1.18555V7.77231H150.829V36.5287H157.821V7.77231H168.69V1.18555H139.961Z" fill="#7F7F7F"/>
<path fill-rule="evenodd" clip-rule="evenodd" d="M82.8753 29.5267C76.7753 29.5267 71.8349 24.5875 71.8349 18.489C71.8349 12.3974 76.7753 7.45042 82.8753 7.45042C88.9684 7.45042 93.9096 12.3974 93.9096 18.489C93.9096 24.5875 88.9684 29.5267 82.8753 29.5267ZM82.8753 0.449219C72.9035 0.449219 64.8242 8.52653 64.8242 18.489C64.8242 28.4514 72.9035 36.5287 82.8753 36.5287C92.8402 36.5287 100.919 28.4514 100.919 18.489C100.919 8.52653 92.8402 0.449219 82.8753 0.449219Z" fill="#7F7F7F"/>
</g>
</svg>

<svg width="169" height="59" fill="none" xmlns="http://www.w3.org/2000/svg"><mask id="a" maskUnits="userSpaceOnUse" x="23" y="49" width="10" height="10"><path fill-rule="evenodd" clip-rule="evenodd" d="M23.875 49.533h8.485v9.085h-8.485v-9.085z" fill="#fff"/></mask><g mask="url(#a)"><path fill-rule="evenodd" clip-rule="evenodd" d="M32.36 51.498l-1.526.92c-.508-.757-1.302-1.208-2.3-1.208-1.608 0-2.809 1.163-2.809 2.865 0 1.758 1.24 2.866 2.808 2.866.992 0 1.787-.432 2.32-1.2l1.45 1.025c-.801 1.138-2.123 1.853-3.756 1.853-2.746 0-4.672-1.91-4.672-4.544 0-2.634 1.926-4.542 4.672-4.542 1.646 0 3.082.745 3.813 1.965z" fill="#7F7F7F"/></g><path fill-rule="evenodd" clip-rule="evenodd" d="M38.505 58.618h-1.827v-3.782l-3.53-5.79h2.148l2.305 4.062 2.305-4.062h2.082l-3.483 5.798v3.774zM45.832 56.936l1.831.007c.907 0 1.468-.246 1.468-1.163 0-.902-.561-1.141-1.468-1.141h-1.831v2.297zm0-3.972h1.673c.813 0 1.446-.198 1.446-1.128 0-.897-.644-1.107-1.452-1.107h-1.667v2.235zm4.821-1.265c0 .964-.51 1.743-1.188 2.031.75.294 1.364 1.114 1.364 2.146 0 1.832-1.117 2.742-3.083 2.742h-3.547v-9.572h3.347c1.908 0 3.107.827 3.107 2.653zM54.512 58.618v-9.572h6.58v1.75H56.28v2.12h4.59v1.751h-4.59v2.2h4.861v1.751h-6.63zM66.495 53.148h1.844c.916 0 1.383-.376 1.383-1.19 0-.8-.49-1.155-1.383-1.155h-1.844v2.345zm4.946-1.19c0 1.573-.957 2.639-2.569 2.824l2.582 3.836h-2.025l-2.443-3.808h-.491v3.808h-1.67v-9.572h3.544c2 0 3.072 1.08 3.072 2.913zM77.572 50.75c-.989 0-1.698.41-1.698 1.11 0 .674.767.893 1.83 1.07l.501.086c1.59.265 2.825.985 2.825 2.59 0 2.035-1.723 3.012-3.629 3.012-1.35 0-2.787-.409-3.737-1.209l.918-1.486c.647.529 1.68.998 2.825.998.989 0 1.742-.403 1.742-1.117 0-.64-.646-.872-1.881-1.083l-.564-.092C75.14 54.365 74 53.657 74 51.979c0-1.929 1.646-2.933 3.534-2.933 1.248 0 2.267.29 3.389.984l-.837 1.506c-.702-.45-1.545-.785-2.514-.785zM83.977 58.618v-9.572h6.579v1.75h-4.811v2.12h4.589v1.751h-4.59v2.2h4.862v1.751h-6.63z" fill="#7F7F7F"/><mask id="b" maskUnits="userSpaceOnUse" x="93" y="49" width="9" height="10"><path fill-rule="evenodd" clip-rule="evenodd" d="M93.176 49.533h8.356v9.085h-8.356v-9.085z" fill="#fff"/></mask><g mask="url(#b)"><path fill-rule="evenodd" clip-rule="evenodd" d="M101.532 51.498l-1.502.92c-.5-.757-1.283-1.208-2.266-1.208-1.584 0-2.766 1.163-2.766 2.865 0 1.758 1.22 2.866 2.766 2.866.977 0 1.76-.432 2.285-1.2l1.427 1.025c-.789 1.138-2.09 1.853-3.7 1.853-2.703 0-4.6-1.91-4.6-4.544 0-2.634 1.897-4.542 4.6-4.542 1.622 0 3.036.745 3.756 1.965z" fill="#7F7F7F"/></g><path fill-rule="evenodd" clip-rule="evenodd" d="M108.286 58.618c-2.175 0-3.682-1.324-3.682-3.923v-5.649h1.71v5.555c0 1.539.8 2.224 1.972 2.224 1.173 0 1.974-.685 1.974-2.224v-5.555h1.71v5.65c0 2.598-1.509 3.922-3.684 3.922zM117.323 53.148h1.844c.916 0 1.384-.376 1.384-1.19 0-.8-.491-1.155-1.384-1.155h-1.844v2.345zm4.947-1.19c0 1.573-.958 2.639-2.57 2.824l2.582 3.836h-2.025l-2.443-3.808h-.491v3.808h-1.671v-9.572h3.545c2.001 0 3.073 1.08 3.073 2.913z" fill="#7F7F7F"/><mask id="c" maskUnits="userSpaceOnUse" x="0" y="0" width="169" height="59"><path fill-rule="evenodd" clip-rule="evenodd" d="M0 58.618h168.69V.45H0v58.17z" fill="#fff"/></mask><g mask="url(#c)" fill-rule="evenodd" clip-rule="evenodd" fill="#7F7F7F"><path d="M125.229 58.618h1.473v-9.572h-1.473v9.572zM134.227 50.831v7.787h-1.791v-7.787h-2.788v-1.785h7.367v1.785h-2.788zM143.107 58.618h-1.826v-3.782l-3.529-5.79h2.147l2.305 4.062 2.305-4.062h2.083l-3.485 5.798v3.774zM18.16 15.417l-1.998-.325c-4.259-.67-7.321-1.494-7.321-4.032 0-2.643 2.837-4.185 6.785-4.185 3.464 0 6.519 1.01 9.13 2.428l4.273-5.14C24.545 1.548 20.469.45 15.479.45 7.926.45 1.338 4.233 1.338 11.503c0 6.328 4.56 8.992 10.818 9.987l2.253.347c4.94.795 7.531 1.667 7.531 4.087 0 2.685-3.019 4.206-6.968 4.206-4.245 0-8.095-1.515-10.692-3.313L0 31.977c3.802 3.009 9.545 4.552 14.944 4.552 7.63 0 14.521-3.687 14.521-11.352 0-6.052-4.942-8.764-11.304-9.76zM50.165 18.425l15.003-17.24h-8.946l-11.83 14.317h-3.371V1.186h-7.136v35.343h7.136v-14.54h3.293l12.73 14.54h9.253L50.165 18.425zM129.266 1.186v20.941c0 5.797-3.284 8.378-8.092 8.378-4.807 0-8.084-2.581-8.084-8.378V1.186h-7.014v21.293c0 9.798 6.185 14.786 15.098 14.786 8.919 0 15.104-4.988 15.104-14.786V1.186h-7.012zM139.961 1.186v6.586h10.868V36.53h6.992V7.772h10.869V1.186h-28.729z"/><path d="M82.875 29.527c-6.1 0-11.04-4.94-11.04-11.038 0-6.092 4.94-11.039 11.04-11.039 6.093 0 11.035 4.947 11.035 11.039 0 6.098-4.942 11.038-11.035 11.038zm0-29.078c-9.972 0-18.05 8.078-18.05 18.04s8.078 18.04 18.05 18.04c9.965 0 18.044-8.078 18.044-18.04S92.84.449 82.875.449z"/></g></svg>
